X: 6539
T: Cathal The Hurler
R: jig
M: 6/8
K: Gmajor
D|:DEG ABd|egd edB|GAB DEG|A3 AGE|
G2G GBd|e/f/g e dBA|GAB DEG|AGE G3:|
d|:edB GBd|gBe dBG|eaa aga|bge g2a|
bag e/f/g e|dBG AGE|GAB DEG|AGE G3:|

